img/image/features-icon-3.svg

<svg width="40" height="41" viewBox="0 0 40 41" fill="none" xmlns="http://www.w3.org/2000/svg">
<g clip-path="url(#clip0_226_1885)">
<path d="M34.7294 12.238L30.7395 8.09742L38.0604 0.5L40 6.76823L34.7294 12.238Z" fill="#EDEEEF"/>
<path d="M34.7293 12.2378L30.9514 8.31714L38.1617 0.834473L40 6.76801L34.7293 12.2378Z" fill="#D8DADC"/>
<path d="M29.7258 6.31388C28.7906 5.38632 27.3117 5.39588 26.3948 6.35213C25.0633 7.73392 26.0447 10.1389 24.4966 11.7454C23.0085 13.2897 18.9449 16.3545 15.7521 19.6727C11.9005 23.6794 9.19141 27.141 9.19141 27.141C7.49595 28.781 5.57013 27.3897 3.10986 29.9429C0.649602 32.496 0.787819 36.3976 3.22965 38.7977C5.58395 41.1119 9.32042 40.9637 11.6102 38.5874L35.4849 13.8013C35.8857 13.3854 35.8857 12.7064 35.4849 12.2905L29.7258 6.31388Z" fill="url(#paint0_linear_226_1885)"/>
<path d="M31.3015 7.95419C30.3662 7.02663 29.1729 7.33263 28.2561 8.28888C26.9246 9.67066 27.3208 11.4684 25.7728 13.0749C24.2847 14.6193 11.0988 28.3032 11.0988 28.3032C8.78132 30.7082 7.1734 29.3551 4.85596 31.7601C5.92023 32.8645 9.32958 36.4027 11.4812 38.6355L35.448 13.7634C35.8488 13.3474 35.8488 12.6685 35.448 12.2525L31.3061 7.95419H31.3015Z" fill="#739CED"/>
<path d="M25.0863 10.8612C25.0587 10.8134 24.6717 11.3824 24.4045 11.6549C22.9163 13.1993 18.8528 16.264 15.6599 19.5822C11.8083 23.5889 9.09924 27.0506 9.09924 27.0506C8.97946 27.194 8.83663 27.3853 8.86888 27.4139C9.60143 28.1742 13.8032 25.0568 18.2446 20.4429C22.5938 15.9294 25.6484 11.7505 25.0863 10.8564V10.8612Z" fill="black"/>
<path d="M22.8611 26.2996C17.3416 32.0276 12.8358 36.6367 13.1583 36.9714C13.4808 37.3061 18.217 32.936 23.7319 27.2081C29.2513 21.4801 33.4623 16.5698 33.1398 16.2303C32.8173 15.8956 28.376 20.5717 22.8565 26.2996H22.8611Z" fill="black"/>
<path d="M3.27112 29.771C3.21583 29.8284 3.15594 29.881 3.10065 29.9383C0.737139 32.3911 0.778604 36.393 3.22044 38.7932C5.57473 41.1074 9.3112 40.9591 11.601 38.5829L11.6793 38.5016L3.27112 29.771Z" fill="black"/>
<path d="M15.5679 24.387C15.7522 24.5783 15.7522 24.889 15.5679 25.0803C15.4112 25.2429 15.1763 25.2668 14.9966 25.1568L18.3276 28.6136C18.2216 28.4272 18.2447 28.1786 18.4013 28.0208C18.5856 27.8295 18.8851 27.8295 19.0694 28.0208C18.8851 27.8295 18.8851 27.5187 19.0694 27.3275C19.2537 27.1362 19.5531 27.1362 19.7374 27.3275C19.5531 27.1362 19.5531 26.8255 19.7374 26.6342C19.9217 26.443 20.2212 26.443 20.4055 26.6342C20.2212 26.443 20.2212 26.1322 20.4055 25.9409C20.5898 25.7497 20.8892 25.7497 21.0735 25.9409C20.8892 25.7497 20.8892 25.4389 21.0735 25.2476C21.2578 25.0564 21.5573 25.0564 21.7416 25.2476C21.5573 25.0564 21.5573 24.7456 21.7416 24.5544C21.9259 24.3631 22.2253 24.3631 22.4096 24.5544C22.2253 24.3631 22.2253 24.0523 22.4096 23.8611C22.5939 23.6698 22.8934 23.6698 23.0777 23.8611C22.8934 23.6698 22.8934 23.359 23.0777 23.1678C23.262 22.9765 23.5614 22.9765 23.7457 23.1678C23.5614 22.9765 23.5614 22.6658 23.7457 22.4745C23.93 22.2833 24.2295 22.2833 24.4138 22.4745C24.2295 22.2833 24.2295 21.9725 24.4138 21.7812C24.5981 21.59 24.8975 21.59 25.0818 21.7812C24.8975 21.59 24.8975 21.2792 25.0818 21.0879C25.2661 20.8967 25.5656 20.8967 25.7499 21.0879C25.5656 20.8967 25.5656 20.5859 25.7499 20.3947C25.9342 20.2034 26.2336 20.2034 26.4179 20.3947C26.2336 20.2034 26.2336 19.8926 26.4179 19.7014C26.6022 19.5101 26.9017 19.5101 27.086 19.7014C26.9017 19.5101 26.9017 19.1994 27.086 19.0081C27.2703 18.8169 27.5697 18.8169 27.754 19.0081C27.5697 18.8169 27.5697 18.5061 27.754 18.3148C27.9383 18.1236 28.2378 18.1236 28.4221 18.3148C28.2378 18.1236 28.2378 17.8128 28.4221 17.6215C28.6063 17.4303 28.9058 17.4303 29.0901 17.6215C28.9058 17.4303 28.9058 17.1195 29.0901 16.9283C29.2744 16.737 29.5739 16.737 29.7582 16.9283C29.5739 16.737 29.5739 16.4262 29.7582 16.235C29.9424 16.0437 30.2419 16.0437 30.4262 16.235C30.2419 16.0437 30.2419 15.7329 30.4262 15.5417C30.6105 15.3504 30.91 15.3504 31.0943 15.5417C30.91 15.3504 30.91 15.0397 31.0943 14.8484C31.2785 14.6572 31.578 14.6572 31.7623 14.8484C31.578 14.6572 31.578 14.3464 31.7623 14.1551C31.9466 13.9639 32.2461 13.9639 32.4304 14.1551C32.2461 13.9639 32.2461 13.6531 32.4304 13.4618C32.6146 13.2706 32.9003 13.2706 33.0892 13.4523C33.2044 13.2562 33.1767 12.9981 33.0155 12.8259L30.2143 9.91893C30.0484 9.74681 29.7996 9.7229 29.6107 9.84243C29.7858 10.0337 29.7812 10.3349 29.6015 10.5262C29.4172 10.7174 29.1178 10.7174 28.9335 10.5262C29.1178 10.7174 29.1178 11.0282 28.9335 11.2194C28.7492 11.4107 28.4497 11.4107 28.2654 11.2194C28.4497 11.4107 28.4497 11.7215 28.2654 11.9127C28.0811 12.104 27.7817 12.104 27.5974 11.9127C27.7817 12.104 27.7817 12.4147 27.5974 12.606C27.4131 12.7972 27.1136 12.7972 26.9293 12.606C27.1136 12.7972 27.1136 13.108 26.9293 13.2993C26.745 13.4905 26.4456 13.4905 26.2613 13.2993C26.4456 13.4905 26.4456 13.8013 26.2613 13.9926C26.077 14.1838 25.7775 14.1838 25.5932 13.9926C25.7775 14.1838 25.7775 14.4946 25.5932 14.6858C25.4089 14.8771 25.1095 14.8771 24.9252 14.6858C25.1095 14.8771 25.1095 15.1879 24.9252 15.3791C24.7409 15.5704 24.4414 15.5704 24.2571 15.3791C24.4414 15.5704 24.4414 15.8812 24.2571 16.0724C24.0728 16.2637 23.7734 16.2637 23.5891 16.0724C23.7734 16.2637 23.7734 16.5744 23.5891 16.7657C23.4048 16.9569 23.1053 16.9569 22.921 16.7657C23.1053 16.9569 23.1053 17.2677 22.921 17.459C22.7367 17.6502 22.4373 17.6502 22.253 17.459C22.4373 17.6502 22.4373 17.961 22.253 18.1523C22.0687 18.3435 21.7692 18.3435 21.5849 18.1523C21.7692 18.3435 21.7692 18.6543 21.5849 18.8455C21.4006 19.0368 21.1012 19.0368 20.9169 18.8455C21.1012 19.0368 21.1012 19.3476 20.9169 19.5388C20.7326 19.7301 20.4331 19.7301 20.2488 19.5388C20.4331 19.7301 20.4331 20.0409 20.2488 20.2321C20.0645 20.4234 19.7651 20.4234 19.5808 20.2321C19.7651 20.4234 19.7651 20.7341 19.5808 20.9254C19.3965 21.1166 19.097 21.1166 18.9127 20.9254C19.097 21.1166 19.097 21.4274 18.9127 21.6187C18.7284 21.8099 18.429 21.8099 18.2447 21.6187C18.429 21.8099 18.429 22.1207 18.2447 22.3119C18.0604 22.5032 17.7609 22.5032 17.5766 22.3119C17.7609 22.5032 17.7609 22.814 17.5766 23.0052C17.3923 23.1965 17.0929 23.1965 16.9086 23.0052C17.0929 23.1965 17.0929 23.5073 16.9086 23.6985C16.7243 23.8898 16.4248 23.8898 16.2405 23.6985C16.4248 23.8898 16.4248 24.2005 16.2405 24.3918C16.0562 24.583 15.7568 24.583 15.5725 24.3918L15.5679 24.387Z" fill="#D8DADC"/>
<path d="M17.7287 29.4121C17.5444 29.2208 17.5444 28.91 17.7287 28.7188C17.7379 28.7092 17.7471 28.7044 17.7563 28.6949L14.9229 25.7544C14.9229 25.7544 14.909 25.7735 14.8998 25.7831C14.7155 25.9743 14.4161 25.9743 14.2318 25.7831C14.4161 25.9743 14.4161 26.2851 14.2318 26.4764C14.0475 26.6676 13.748 26.6676 13.5637 26.4764C13.748 26.6676 13.748 26.9784 13.5637 27.1696C13.3794 27.3609 13.08 27.3609 12.8957 27.1696C13.08 27.3609 13.08 27.6717 12.8957 27.8629C12.7114 28.0542 12.4119 28.0542 12.2276 27.8629C12.4119 28.0542 12.4119 28.365 12.2276 28.5562C12.0434 28.7475 11.7439 28.7475 11.5596 28.5562C11.7439 28.7475 11.7439 29.0582 11.5596 29.2495C11.3753 29.4407 11.0758 29.4407 10.8915 29.2495C11.0758 29.4407 11.0758 29.7515 10.8915 29.9428C10.7073 30.134 10.4078 30.134 10.2235 29.9428C10.4078 30.134 10.4078 30.4448 10.2235 30.6361C10.0392 30.8273 9.73973 30.8273 9.55544 30.6361C9.73973 30.8273 9.73973 31.1381 9.55544 31.3293C9.37576 31.5158 9.08551 31.5206 8.89661 31.3389C8.78143 31.5349 8.80446 31.7979 8.97033 31.9652L11.7715 34.8723C11.9374 35.0444 12.1862 35.0683 12.3751 34.9488C12.2 34.7575 12.2046 34.4563 12.3843 34.265C12.564 34.0738 12.868 34.0738 13.0523 34.265C12.868 34.0738 12.868 33.763 13.0523 33.5717C13.2366 33.3805 13.5361 33.3805 13.7204 33.5717C13.5361 33.3805 13.5361 33.0697 13.7204 32.8785C13.9047 32.6872 14.2041 32.6872 14.3884 32.8785C14.2041 32.6872 14.2041 32.3764 14.3884 32.1852C14.5727 31.9939 14.8722 31.9939 15.0565 32.1852C14.8722 31.9939 14.8722 31.6832 15.0565 31.4919C15.2408 31.3007 15.5402 31.3007 15.7245 31.4919C15.5402 31.3007 15.5402 30.9899 15.7245 30.7986C15.9088 30.6074 16.2083 30.6074 16.3926 30.7986C16.2083 30.6074 16.2083 30.2966 16.3926 30.1053C16.5769 29.9141 16.8763 29.9141 17.0606 30.1053C16.8763 29.9141 16.8763 29.6033 17.0606 29.4121C17.2449 29.2208 17.5444 29.2208 17.7287 29.4121Z" fill="url(#paint1_linear_226_1885)"/>
<path d="M18.6363 28.939C17.5351 30.0817 15.7475 30.0817 14.6464 28.939C13.5453 27.7963 13.5453 25.9412 14.6464 24.7984C15.7475 23.6557 17.5351 23.6557 18.6363 24.7984C19.7374 25.9412 19.7374 27.7963 18.6363 28.939Z" fill="black"/>
<path d="M16.6414 28.2982C17.4022 28.2982 18.0189 27.6581 18.0189 26.8686C18.0189 26.079 17.4022 25.439 16.6414 25.439C15.8805 25.439 15.2638 26.079 15.2638 26.8686C15.2638 27.6581 15.8805 28.2982 16.6414 28.2982Z" fill="#D8DADC"/>
<path d="M0.105489 0.657007L0.112005 0.650246C0.248833 0.50825 0.470364 0.50825 0.607192 0.650246L1.01768 1.07623C1.1545 1.21823 1.1545 1.44813 1.01768 1.59012L1.01442 1.59351C0.877589 1.7355 0.656059 1.7355 0.519231 1.59351L0.108747 1.16752C-0.0313384 1.0289 -0.0313384 0.799003 0.105489 0.657007Z" fill="#6D6D6E"/>
<path d="M0.912156 0.944824L4.3169 2.88601L4.81448 3.40717L2.75505 5.54439L2.34501 5.11886L0.382324 1.48989L0.912156 0.944824Z" fill="#E2DDAF"/>
<path d="M4.31699 2.88574L38.3737 38.2288C38.6501 38.5157 38.4289 38.75 38.1571 39.0368L37.0882 40.1461C36.8118 40.433 36.5861 40.6577 36.3096 40.3708L2.34509 5.11859L2.94403 4.92256L3.00393 3.99021L3.97605 3.70812L4.31699 2.88574Z" fill="#739CED"/>
<path d="M2.34509 5.1188L36.3096 40.3662C36.5861 40.6531 36.8118 40.4236 37.0882 40.1415L37.7471 39.4578L3.44622 3.86133L3.00393 3.99042L2.94403 4.92277L2.34509 5.1188Z" fill="url(#paint2_linear_226_1885)"/>
</g>
<defs>
<linearGradient id="paint0_linear_226_1885" x1="-23.0039" y1="-17.137" x2="41.893" y2="-14.2636" gradientUnits="userSpaceOnUse">
<stop stop-color="#040E1D"/>
<stop offset="0.203125" stop-color="#0E305F"/>
<stop offset="0.395833" stop-color="#133F7B"/>
<stop offset="0.578125" stop-color="#19519D"/>
<stop offset="0.786458" stop-color="#1161CD"/>
<stop offset="1" stop-color="#1161CD"/>
</linearGradient>
<linearGradient id="paint1_linear_226_1885" x1="2.51717" y1="19.6963" x2="19.3412" y2="20.4219" gradientUnits="userSpaceOnUse">
<stop stop-color="#040E1D"/>
<stop offset="0.203125" stop-color="#0E305F"/>
<stop offset="0.395833" stop-color="#133F7B"/>
<stop offset="0.578125" stop-color="#19519D"/>
<stop offset="0.786458" stop-color="#1161CD"/>
<stop offset="1" stop-color="#1161CD"/>
</linearGradient>
<linearGradient id="paint2_linear_226_1885" x1="-22.6576" y1="-20.0848" x2="44.0284" y2="-17.2008" gradientUnits="userSpaceOnUse">
<stop stop-color="#040E1D"/>
<stop offset="0.203125" stop-color="#0E305F"/>
<stop offset="0.395833" stop-color="#133F7B"/>
<stop offset="0.578125" stop-color="#19519D"/>
<stop offset="0.786458" stop-color="#1161CD"/>
<stop offset="1" stop-color="#1161CD"/>
</linearGradient>
<clipPath id="clip0_226_1885">
<rect width="40" height="40" fill="white" transform="translate(0 0.5)"/>
</clipPath>
</defs>
</svg>

<svg width="40" height="41" fill="none" xmlns="http://www.w3.org/2000/svg"><g clip-path="url(#a)"><path d="m34.73 12.238-3.99-4.14L38.06.5 40 6.768l-5.27 5.47Z" fill="#EDEEEF"/><path d="m34.73 12.238-3.779-3.92 7.21-7.484L40 6.768l-5.27 5.47Z" fill="#D8DADC"/><path d="M29.726 6.314a2.317 2.317 0 0 0-3.331.038c-1.332 1.382-.35 3.787-1.898 5.393-1.488 1.545-5.552 4.61-8.745 7.928-3.852 4.006-6.56 7.468-6.56 7.468-1.696 1.64-3.622.249-6.082 2.802s-2.322 6.455.12 8.855c2.354 2.314 6.09 2.166 8.38-.21L35.485 13.8a1.1 1.1 0 0 0 0-1.51l-5.76-5.977Z" fill="url(#b)"/><path d="M31.302 7.954c-.936-.927-2.13-.621-3.046.335-1.331 1.382-.935 3.18-2.483 4.786L11.099 28.303c-2.318 2.405-3.926 1.052-6.243 3.457l6.625 6.875 23.967-24.872a1.1 1.1 0 0 0 0-1.51l-4.142-4.299h-.005Z" fill="#739CED"/><path d="M25.086 10.861c-.027-.048-.414.521-.681.794-1.489 1.544-5.552 4.609-8.745 7.927-3.852 4.007-6.56 7.469-6.56 7.469-.12.143-.263.334-.231.363.732.76 4.934-2.357 9.376-6.971 4.349-4.514 7.403-8.693 6.841-9.587v.005ZM22.861 26.3c-5.52 5.728-10.025 10.337-9.703 10.671.323.335 5.059-4.035 10.574-9.763 5.52-5.728 9.73-10.638 9.408-10.978-.323-.334-4.764 4.342-10.284 10.07h.005ZM3.271 29.771c-.055.057-.115.11-.17.167-2.364 2.453-2.322 6.455.12 8.855 2.354 2.314 6.09 2.166 8.38-.21l.078-.081-8.408-8.731Z" fill="#000"/><path d="M15.568 24.387a.504.504 0 0 1 0 .693.456.456 0 0 1-.571.077l3.33 3.457a.5.5 0 0 1 .074-.593.46.46 0 0 1 .668 0 .504.504 0 0 1 0-.694.46.46 0 0 1 .668 0 .504.504 0 0 1 0-.693.46.46 0 0 1 .669 0 .504.504 0 0 1 0-.693.46.46 0 0 1 .668 0 .504.504 0 0 1 0-.693.46.46 0 0 1 .668 0 .504.504 0 0 1 0-.694.46.46 0 0 1 .668 0 .504.504 0 0 1 0-.693.46.46 0 0 1 .668 0 .504.504 0 0 1 0-.693.46.46 0 0 1 .668 0 .504.504 0 0 1 0-.694.46.46 0 0 1 .668 0 .504.504 0 0 1 0-.693.46.46 0 0 1 .668 0 .504.504 0 0 1 0-.693.46.46 0 0 1 .668 0 .504.504 0 0 1 0-.693.46.46 0 0 1 .668 0 .504.504 0 0 1 0-.694.46.46 0 0 1 .668 0 .504.504 0 0 1 0-.693.46.46 0 0 1 .668 0 .504.504 0 0 1 0-.693.46.46 0 0 1 .668 0 .504.504 0 0 1 0-.694.46.46 0 0 1 .668 0 .504.504 0 0 1 0-.693.46.46 0 0 1 .668 0 .504.504 0 0 1 0-.693.46.46 0 0 1 .668 0 .504.504 0 0 1 0-.693.46.46 0 0 1 .668 0 .504.504 0 0 1 0-.694.46.46 0 0 1 .668 0 .504.504 0 0 1 0-.693.46.46 0 0 1 .668 0 .504.504 0 0 1 0-.693.458.458 0 0 1 .66-.01.53.53 0 0 0-.075-.626l-2.8-2.907a.477.477 0 0 0-.604-.077.506.506 0 0 1-.01.684.46.46 0 0 1-.668 0 .504.504 0 0 1 0 .693.46.46 0 0 1-.668 0 .504.504 0 0 1 0 .694.46.46 0 0 1-.668 0 .504.504 0 0 1 0 .693.46.46 0 0 1-.668 0 .504.504 0 0 1 0 .693.46.46 0 0 1-.668 0 .504.504 0 0 1 0 .694.46.46 0 0 1-.668 0 .504.504 0 0 1 0 .693.46.46 0 0 1-.668 0 .504.504 0 0 1 0 .693.46.46 0 0 1-.668 0 .504.504 0 0 1 0 .693.46.46 0 0 1-.668 0 .504.504 0 0 1 0 .694.46.46 0 0 1-.668 0 .504.504 0 0 1 0 .693.46.46 0 0 1-.668 0 .504.504 0 0 1 0 .693.46.46 0 0 1-.668 0 .504.504 0 0 1 0 .694.46.46 0 0 1-.668 0 .504.504 0 0 1 0 .693.46.46 0 0 1-.668 0 .504.504 0 0 1 0 .693.46.46 0 0 1-.668 0 .504.504 0 0 1 0 .693.46.46 0 0 1-.668 0 .504.504 0 0 1 0 .694.46.46 0 0 1-.668 0 .504.504 0 0 1 0 .693.46.46 0 0 1-.668 0 .504.504 0 0 1 0 .693.46.46 0 0 1-.668 0 .504.504 0 0 1 0 .694.46.46 0 0 1-.668 0 .504.504 0 0 1 0 .693.46.46 0 0 1-.668 0l-.005-.005Z" fill="#D8DADC"/><path d="M17.729 29.412a.504.504 0 0 1 0-.693c.009-.01.018-.015.027-.024l-2.833-2.94-.023.028a.46.46 0 0 1-.668 0 .504.504 0 0 1 0 .693.46.46 0 0 1-.668 0 .504.504 0 0 1 0 .694.46.46 0 0 1-.668 0 .504.504 0 0 1 0 .693.46.46 0 0 1-.668 0 .504.504 0 0 1 0 .693.46.46 0 0 1-.668 0 .504.504 0 0 1 0 .694.46.46 0 0 1-.668 0 .504.504 0 0 1 0 .693.46.46 0 0 1-.668 0 .504.504 0 0 1 0 .693.46.46 0 0 1-.669 0 .504.504 0 0 1 0 .693.462.462 0 0 1-.658.01.522.522 0 0 0 .073.626l2.801 2.907a.477.477 0 0 0 .604.077.506.506 0 0 1 .01-.684.46.46 0 0 1 .667 0 .504.504 0 0 1 0-.693.46.46 0 0 1 .668 0 .504.504 0 0 1 0-.694.46.46 0 0 1 .668 0 .504.504 0 0 1 0-.693.46.46 0 0 1 .668 0 .504.504 0 0 1 0-.693.46.46 0 0 1 .669 0 .504.504 0 0 1 0-.693.46.46 0 0 1 .668 0 .504.504 0 0 1 0-.694.46.46 0 0 1 .668 0 .504.504 0 0 1 0-.693.46.46 0 0 1 .668 0Z" fill="url(#c)"/><path d="M18.636 28.939a2.75 2.75 0 0 1-3.99 0 3.008 3.008 0 0 1 0-4.14 2.75 2.75 0 0 1 3.99 0 3.008 3.008 0 0 1 0 4.14Z" fill="#000"/><path d="M16.641 28.298c.761 0 1.378-.64 1.378-1.43 0-.789-.617-1.429-1.378-1.429-.76 0-1.377.64-1.377 1.43 0 .79.617 1.43 1.377 1.43Z" fill="#D8DADC"/><path d="M.105.657.112.65a.341.341 0 0 1 .495 0l.41.426a.373.373 0 0 1 0 .514l-.003.004a.341.341 0 0 1-.495 0l-.41-.426A.366.366 0 0 1 .105.657Z" fill="#6D6D6E"/><path d="m.912.945 3.405 1.941.497.521-2.059 2.137-.41-.425-1.963-3.63.53-.544Z" fill="#E2DDAF"/><path d="m4.317 2.886 34.057 35.343c.276.287.055.521-.217.808l-1.069 1.11c-.276.286-.502.51-.778.224L2.345 5.119l.599-.196.06-.933.972-.282.341-.822Z" fill="#739CED"/><path d="M2.345 5.119 36.31 40.366c.276.287.502.058.778-.224l.66-.684L3.445 3.86l-.442.13-.06.932-.599.196Z" fill="url(#d)"/></g><defs><linearGradient id="b" x1="-23.004" y1="-17.137" x2="41.893" y2="-14.264" gradientUnits="userSpaceOnUse"><stop stop-color="#040E1D"/><stop offset=".203" stop-color="#0E305F"/><stop offset=".396" stop-color="#133F7B"/><stop offset=".578" stop-color="#19519D"/><stop offset=".786" stop-color="#1161CD"/><stop offset="1" stop-color="#1161CD"/></linearGradient><linearGradient id="c" x1="2.517" y1="19.696" x2="19.341" y2="20.422" gradientUnits="userSpaceOnUse"><stop stop-color="#040E1D"/><stop offset=".203" stop-color="#0E305F"/><stop offset=".396" stop-color="#133F7B"/><stop offset=".578" stop-color="#19519D"/><stop offset=".786" stop-color="#1161CD"/><stop offset="1" stop-color="#1161CD"/></linearGradient><linearGradient id="d" x1="-22.658" y1="-20.085" x2="44.028" y2="-17.201" gradientUnits="userSpaceOnUse"><stop stop-color="#040E1D"/><stop offset=".203" stop-color="#0E305F"/><stop offset=".396" stop-color="#133F7B"/><stop offset=".578" stop-color="#19519D"/><stop offset=".786" stop-color="#1161CD"/><stop offset="1" stop-color="#1161CD"/></linearGradient><clipPath id="a"><path fill="#fff" transform="translate(0 .5)" d="M0 0h40v40H0z"/></clipPath></defs></svg>
